!!!OTL: ES GIEBT ZWEI VOEGEL
!!!ARE: Europa, Mitteleuropa, Deutschland
!!!SCT: F0127
!!!YEM: Copyright 1995, estate of Helmut Schaffrath.
**kern
*ICvox
*Ivox
*M6/8
*k[f#]
*G:
{8b
=1
4b
8b
8.b
16cc
8dd
=2
4dd
8cc
8cc
8r}
{8b
=3
4a
8a
8.a
16g
8a
=4
8b
8b
4.r}
{16b
16cc
=5
4dd
8dd
8.dd
16cc
8dd
=6
4ee
8cc
4cc}
{8ee
=7
8.dd
16ee
8dd
8.cc
16dd
8cc
=8
8.b
16cc
8dd
8cc
8b}
{8a
=9
8b
8b
4.r
8a
=10
8g
8g
4.r}
==
!!!AGN: Moral - Lied
!!!ONB: ESAC (Essen Associative Code) Database: FINK
!!!AMT: compound duple
!!!AIN: vox
!!!EED: Helmut Schaffrath
!!!EEV: 1.0
*-
